X: 35940
T: Sara's
R: reel
M: 4/4
K: Gmajor
G2AG FDD2|G2Bd edef|g2fd edBG|ABcA FDD2|
G2AG FDD2|G2Bd edef|g2fd edBG|AGFA G3z:|
gggd edBd|eaag fdd2|fade ((3fed) ef|gbag fdef|
g2gd edBG|ABcA FDD2|gggd edBG|AGFA G3z:|

